X:1
T:James Gibb editions
T:O happy band of pilgrims - Barnby
%%score [ ( 1 2 ) ( 3 4 ) ]
L:1/8
Q:1/4=96
M:4/4
K:Eb
V:1 treble nm="Midi_74"
V:2 treble 
V:3 bass nm="Midi_74"
V:4 bass 
V:1
"^John Mason Neale\n(1818-66)""^O happy band of pilgrims""^Joseph Barnby\n(1838-96)""^76. 76" G2 | %1
 G2 B2 A2 G2 | F4 G2 || B2 | c2 d2 c2 c2 | B6 ||[M:4/4] !courtesy!_A2 | G2 B2"^1" e2 d2 | c4 B2 | %9
 A2 | G2"^1" A2 F3 E | E6 || A4 G4 |] %13
V:2
 E2 | E2 F2 E2 E2 | (E2 D2) E2 || F2 | F2 F2 ED C2 | (D4 E2) ||[M:4/4] F2 | E2 D2 E2 G2 | E4 E2 | %9
 E2 | E2 E2 E2 D2 | E6 || E4 E4 |] %13
V:3
 B,2 | B,2 F,G, A,2 B,2 | (C2 B,2) B,2 || B,2 | =A,2 B,2 B,2 !courtesy!=A,2 | B,6 ||[M:4/4] B,2 | %7
"^1 O happy band of pilgrims,\nIf onward ye will tread\nWith Jesus as your Fellow\nTo Jesus as your Head!\n\n2 O happy if ye labour\nAs Jesus did for men;\nO happy if ye hunger\nAs Jesus hungered then!\n\n3 The cross that Jesus carried\nHe carried as your due;\nThe crown that Jesus weareth,\nHe weareth it for you.\n\n4 The faith by which ye see him,\nThe hope in which ye yearn,\nThe love that through all troubles\nTo him alone will turn," B,3 A, G,2 B,2 | %8
 E4 D2 | C2 | %10
"^5 What are they but forerunners\nTo lead you to his sight?\nWhat are they save the effluence\nOf uncreated light?\n\n6 The trials that beset you,\nThe sorrows ye endure,\nThe manifold temptations\nThat death alone can cure,\n\n7 What are they but his jewels\nOf right celestial worth?\nWhat are they but the ladder\nSet up to heaven on earth?\n\n8 O happy band of pilgrims,\nLook upward to the skies,\nWhere such a light affliction\nShall win you such a prize!" B,2 A,2 B,2 A,2 | %11
 G,6 || C4 B,4 |] %13
V:4
 E,2 | E,2 D,2 C,2 B,,2 | (A,,2 B,,2) E,2 || D,2 | C,2 B,,2 F,2 F,2 | (B,,4 C,2) ||[M:4/4] D,2 | %7
 E,2 F,2 G,2 E,2 | A,,4 A,,2 | A,,2 | B,,2 C,2 B,,2 B,,2 | E,6 || A,,4 E,4 |] %13

